X:428
T: Yiujiang
N: C1463
O: China,Hubei, Zigui
S: I, 467]
R: Xiaodiao, Fengsuge, Longchuanqu]
M: 4/4
L: 1/16
K: C
eee6d2edc2A2 | e8d2c2A4 |
e2d2e4d2edc2d2 | c8d2c2A4 |
A4c4d2d2A4 | c8d2c2A4 |
e2e2e4d2edc2A2 | e8d2c2A4 |
A4c4d2d2A4 | c8d2c2A4 |
d2d2e4d2edc2d2 | c8d2c2A4 |
A4c4d2d2A4 | c8d2c2A4 |
d2d2e4d2edc2A2 | e8d2c2A4 |
e4d4d2edc2d2 | c8d2c2A4 |
A4c4d2d2A4 | c8d2c2A4 |
d2d2e4d2edc2A2 | e8d2c2A4 |
e4d4d2edc2d2 | c8d2c2A4 |
A4c4d2d6 | c8d2c2A4 |
A4c4d2d6 | c8d2c2A4

@@@ Tune index: 6429
